public/img/icon-heart-flat.svg

<svg height="84" viewBox="0 0 62 84" width="62" xmlns="http://www.w3.org/2000/svg"><path d="m88.0048185 76.5c-10.8542175 0-19.6785555 8.8807235-19.6785555 19.7913266 0 3.0730123 1.3321081 6.6112064 3.3831328 10.4313264 2.0510247 3.820121 4.8562047 7.865783 7.9503619 11.615422 3.0941573 3.749639 6.4631928 7.196205 9.7546995 9.7547 2.2131336 1.719759 4.3557843 3.065964 6.4843378 3.777831l-1.4096387 4.17253h2.5937351c-.1409638.859881-.4017465 1.52241-.6766265 2.199037-.4228916 1.05723-1.0149398 2.318855-1.0149398 4.116145 0 2.297712 1.1770487 4.052711 2.0862652 5.525783.9092164 1.473072 1.5224097 2.671266 1.5224097 3.495904 0 3.559337-1.4096386 5.18747-1.4096386 5.18747-.6202411.775302-.5004222 1.917109.2819277 2.53735.7753021.620241 1.9171085.500422 2.5373499-.281928 0 0 2.199036-2.826325 2.199036-7.442892 0-2.241325-1.191144-3.904698-2.086265-5.356627-.8951213-1.451927-1.52241-2.692409-1.52241-3.66506 0-1.029036.3171682-1.635181.7893976-2.819278.3524104-.873976.7259644-2.008734.9021684-3.495904h2.819278l-1.409639-4.17253c2.128555-.711867 4.271206-2.058072 6.484338-3.777831 3.291507-2.558495 6.660542-6.005061 9.754699-9.7547 3.094158-3.749639 5.899338-7.795301 7.950362-11.615422 2.051025-3.82012 3.383133-7.3583141 3.383133-10.4313264 0-10.9035554-8.824338-19.7913266-19.678556-19.7913266-4.109097 0-7.844638 1.4378314-10.995181 3.6086749-3.1505428-2.1708435-6.8860843-3.6086749-10.9951815-3.6086749zm0 3.6086749c3.7355434 0 7.1327716 1.2827721 9.8674706 3.4395183.662531.528615 1.5928926.528615 2.2554219 0 2.734699-2.1567462 6.131929-3.4395183 9.86747-3.4395183 8.887772 0 16.069881 7.2103022 16.069881 16.1826517 0 1.8959635-1.085421 5.1874704-2.988434 8.7397594-1.903011 3.55229-4.60247 7.407652-7.555663 10.995182s-6.195362 6.864941-9.190844 9.190844c-2.995482 2.325904-5.779518 3.608675-7.330121 3.608675-1.5506025 0-4.3346393-1.282771-7.330121-3.608675-2.9954816-2.325903-6.2376505-5.603314-9.190844-9.190844-2.9531934-3.58753-5.65265-7.442892-7.5556631-10.995182-1.9030113-3.552289-2.9884339-6.8437959-2.9884339-8.7397594 0-8.9723495 7.1821093-16.1826517 16.0698805-16.1826517z" fill="#3aaee6" fill-rule="evenodd" transform="translate(-68 -76)"/></svg>

<?xml version="1.0" encoding="UTF-8"?>
<svg width="62px" height="84px" viewBox="0 0 62 84" version="1.1" xmlns="http://www.w3.org/2000/svg" xmlns:xlink="http://www.w3.org/1999/xlink">
    <!-- Generator: Sketch 51.2 (57519) - http://www.bohemiancoding.com/sketch -->
    <title>Shape</title>
    <desc>Created with Sketch.</desc>
    <defs></defs>
    <g id="FDS-Design-Pages" stroke="none" stroke-width="1" fill="none" fill-rule="evenodd">
        <g id="Home" transform="translate(-1012.000000, -788.000000)" fill="#3AAEE6">
            <g id="Principles-Tile-Copy" transform="translate(944.000000, 712.000000)">
                <path d="M88.0048185,76.5 C77.150601,76.5 68.326263,85.3807235 68.326263,96.2913266 C68.326263,99.3643389 69.6583711,102.902533 71.7093958,106.722653 C73.7604205,110.542774 76.5656005,114.588436 79.6597577,118.338075 C82.753915,122.087714 86.1229505,125.53428 89.4144572,128.092775 C91.6275908,129.812534 93.7702415,131.158739 95.898795,131.870606 L94.4891563,136.043136 L97.0828914,136.043136 C96.9419276,136.903017 96.6811449,137.565546 96.4062649,138.242173 C95.9833733,139.299403 95.3913251,140.561028 95.3913251,142.358318 C95.3913251,144.65603 96.5683738,146.411029 97.4775903,147.884101 C98.3868067,149.357173 99,150.555367 99,151.380005 C99,154.939342 97.5903614,156.567475 97.5903614,156.567475 C96.9701203,157.342777 97.0899392,158.484584 97.8722891,159.104825 C98.6475912,159.725066 99.7893976,159.605247 100.409639,158.822897 C100.409639,158.822897 102.608675,155.996572 102.608675,151.380005 C102.608675,149.13868 101.417531,147.475307 100.52241,146.023378 C99.6272887,144.571451 99,143.330969 99,142.358318 C99,141.329282 99.3171682,140.723137 99.7893976,139.53904 C100.141808,138.665064 100.515362,137.530306 100.691566,136.043136 L103.510844,136.043136 L102.101205,131.870606 C104.22976,131.158739 106.372411,129.812534 108.585543,128.092775 C111.87705,125.53428 115.246085,122.087714 118.340242,118.338075 C121.4344,114.588436 124.23958,110.542774 126.290604,106.722653 C128.341629,102.902533 129.673737,99.3643389 129.673737,96.2913266 C129.673737,85.3877712 120.849399,76.5 109.995181,76.5 C105.886084,76.5 102.150543,77.9378314 99,80.1086749 C95.8494572,77.9378314 92.1139157,76.5 88.0048185,76.5 Z M88.0048185,80.1086749 C91.7403619,80.1086749 95.1375901,81.391447 97.8722891,83.5481932 C98.5348201,84.0768082 99.4651817,84.0768082 100.127711,83.5481932 C102.86241,81.391447 106.25964,80.1086749 109.995181,80.1086749 C118.882953,80.1086749 126.065062,87.3189771 126.065062,96.2913266 C126.065062,98.1872901 124.979641,101.478797 123.076628,105.031086 C121.173617,108.583376 118.474158,112.438738 115.520965,116.026268 C112.567772,119.613798 109.325603,122.891209 106.330121,125.217112 C103.334639,127.543016 100.550603,128.825787 99,128.825787 C97.4493975,128.825787 94.6653607,127.543016 91.669879,125.217112 C88.6743974,122.891209 85.4322285,119.613798 82.479035,116.026268 C79.5258416,112.438738 76.826385,108.583376 74.9233719,105.031086 C73.0203606,101.478797 71.934938,98.1872901 71.934938,96.2913266 C71.934938,87.3189771 79.1170473,80.1086749 88.0048185,80.1086749 Z" id="Shape"></path>
            </g>
        </g>
    </g>
</svg>
